X:381
T:Laurieston
C:Hugh Foss
B:The Galloway Album (Castle Douglas 1964)
Z:Nigel Gatherer
L:1/8
M:6/8
K:G
B | GAB d2B | e2B d2B | c2B A2B | G2B d2B | e2B d2A | B2A G2B |
    G2B d2B | e2B d2B | c2B A2B | GAB d2B | edB d2B | B2A G2d |
    gfe d2B | d3  B2d | c2B A2d | gfe d2B | cde d2A | B2A G2d |
    gfe d2B | d3  B2d | c2B A2d | gfe dcB | ABc B2A | B2A G2 |]
<end>
<start>
